brandFactory_export/2.Regular/Visa tarjeta credito _2Regular.svg

<?xml version="1.0" encoding="UTF-8"?>
<svg width="24px" height="24px" viewBox="0 0 24 24" version="1.1" xmlns="http://www.w3.org/2000/svg" xmlns:xlink="http://www.w3.org/1999/xlink">
    <title>2.Regular/Visa tarjeta credito _2Regular</title>
    <g id="Symbols" stroke="none" stroke-width="1" fill="none" fill-rule="evenodd">
        <g id="2.Regular/Visa-tarjeta-credito-_2Regular" fill="#5CB615" fill-rule="nonzero">
            <path d="M21.8890756,19.3446081 C22.0336134,19.3446081 22.1546218,19.2268908 22.1546218,19.0823529 L22.1546218,12.1680672 L1.45882353,12.1680672 L1.45882353,19.0823529 C1.45882353,19.2302521 1.57983193,19.3478992 1.72773109,19.3446081 L21.8890756,19.3446081 Z M1.72773109,5.45546218 C1.57983193,5.45546218 1.45882353,5.57310924 1.45882353,5.7210084 L1.45882353,7.15294118 L22.1579832,7.15294118 L22.1579832,5.7210084 C22.1579832,5.57310924 22.0403361,5.45546218 21.892437,5.45546218 L1.72773109,5.45546218 Z M1.45882353,10.7428571 L22.1579832,10.7428571 L22.1579832,8.57815126 L1.45882353,8.57815126 L1.45882353,10.7428571 Z M23.6235294,7.86554622 L23.6235294,11.4554622 C23.6235294,11.492437 23.6067227,11.5226891 23.6033613,11.5563025 L23.6033613,19.0823529 C23.6033613,20.0134454 22.8369748,20.7697479 21.8890756,20.7697479 L1.72773109,20.7697479 C0.783193277,20.7697479 0.0134453782,20.0134454 0.0134453782,19.0823529 L0.0134453782,11.512605 C0.0100840336,11.4957983 0,11.4756303 0,11.4554622 L0,7.86554622 C0,7.84537815 0.0100840336,7.82521008 0.0134453782,7.80504202 L0.0134453782,5.7210084 C0.0134453782,4.78991597 0.779831933,4.0302521 1.72773109,4.0302521 L21.8890756,4.0302521 C22.8336134,4.0302521 23.6033613,4.78655462 23.6033613,5.71764706 L23.6033613,7.76470588 C23.6067227,7.79831933 23.6235294,7.82857143 23.6235294,7.86554622 Z M18.4268908,17.2470588 C19.0420168,17.2369748 19.7747899,16.9848739 19.7747899,15.8453782 C19.7747899,14.7058824 19.0352941,14.4470588 18.4134454,14.4336134 L18.2453782,14.4336134 C18.1008403,14.4336134 17.707563,14.4638655 17.3915966,14.6890756 C17.5260504,15.0151261 17.610084,15.394958 17.610084,15.8453782 C17.610084,16.2890756 17.5294118,16.6621849 17.4016807,16.9848739 C17.7243697,17.2134454 18.1243697,17.2470588 18.2621849,17.2470588 L18.4268908,17.2470588 Z M15.0084034,17.2470588 C15.6235294,17.2369748 16.3563025,16.9848739 16.3563025,15.8453782 C16.3563025,14.7058824 15.6168067,14.4470588 14.994958,14.4336134 L14.8201681,14.4336134 C14.2151261,14.4369748 13.4957983,14.6823529 13.4957983,15.8352941 C13.4957983,16.9882353 14.2285714,17.2403361 14.8403361,17.2504202 C14.8369748,17.2470588 15.0084034,17.2470588 15.0084034,17.2470588 L15.0084034,17.2470588 Z M18.4504202,13.2033613 C19.6369748,13.2302521 21.0285714,13.9394958 21.0285714,15.8487395 C21.0285714,17.7613445 19.6369748,18.4638655 18.4470588,18.4840336 L18.2386555,18.4840336 C17.9193277,18.4806723 17.2235294,18.410084 16.6252101,17.9697479 C16.1579832,18.2991597 15.6,18.4806723 15.0252101,18.4840336 L14.8168067,18.4840336 C13.6268908,18.4672269 12.2352941,17.7647059 12.2352941,15.8352941 C12.2352941,13.9058824 13.6201681,13.210084 14.8033613,13.2 C14.8773109,13.2 14.9512605,13.2 15.0252101,13.2033613 C15.5932773,13.2134454 16.1445378,13.3915966 16.6084034,13.7176471 C17.2336134,13.2571429 17.9697479,13.2033613 18.2285714,13.2033613 C18.302521,13.1966387 18.3831933,13.2 18.4504202,13.2033613 L18.4504202,13.2033613 Z" id="Visa-tarjeta-credito-_2Regular"></path>
        </g>
    </g>
</svg>

<svg width="24" height="24" viewBox="0 0 24 24" xmlns="http://www.w3.org/2000/svg"><path d="M21.89 19.345a.265.265 0 00.265-.263v-6.914H1.459v6.914c0 .148.12.266.269.263h20.161zM1.727 5.455a.267.267 0 00-.27.266v1.432h20.7V5.72a.264.264 0 00-.266-.266H1.728zm-.27 5.288h20.7V8.578h-20.7v2.165zm22.166-2.877v3.59c0 .036-.017.067-.02.1v7.526c0 .931-.767 1.688-1.715 1.688H1.728c-.945 0-1.715-.757-1.715-1.688v-7.57C.01 11.497 0 11.477 0 11.456v-3.59c0-.02.01-.04.013-.06V5.721c0-.931.767-1.69 1.715-1.69h20.161c.945 0 1.714.756 1.714 1.687v2.047c.004.033.02.064.02.1zm-5.197 9.381c.615-.01 1.348-.262 1.348-1.402s-.74-1.398-1.362-1.411h-.168c-.144 0-.537.03-.853.255.134.326.218.706.218 1.156 0 .444-.08.817-.208 1.14.322.228.722.262.86.262h.165zm-3.419 0c.616-.01 1.348-.262 1.348-1.402s-.74-1.398-1.361-1.411h-.175c-.605.003-1.324.248-1.324 1.401s.733 1.405 1.344 1.415c-.003-.003.168-.003.168-.003zm3.442-4.044c1.187.027 2.579.736 2.579 2.646 0 1.912-1.392 2.615-2.582 2.635h-.208c-.32-.003-1.015-.074-1.614-.514-.467.33-1.025.51-1.6.514h-.208c-1.19-.017-2.582-.72-2.582-2.649 0-1.93 1.385-2.625 2.568-2.635.074 0 .148 0 .222.003.568.01 1.12.189 1.583.515.626-.46 1.362-.515 1.62-.515.075-.006.155-.003.222 0z" fill="#5CB615" fill-rule="nonzero"/></svg>
